X:33
T:Liebe Schwester, tanz mit mir!
B:Frau Nachtigall (Straburg - 1928)
Z:<anamnese@laposte.net> -- http://anamnese.fr.st
N:p.130
M:2/4
L:1/8
Q:1/4=120
K:F
C F F F | E G C2 | C E G B | A c F2 |
A A B2  | G G A2 | F F G G | E E F2 |]
W:Liebe Schwester, tanz mit mir!
W:Beide Hnde reich ich dir.
W:Einmal hin, einmal her, und herum, das ist nicht schwer.
